X:1
T: Lord Hinchinbrook's Reel
C:R. Mackintosh
R:Reel
Q: 232
K:Bb
M:4/4
L:1/8
|:F|D1/2E1/2F1/2G1/4A1/4 BF DB, FD|EG DF EC CA|BF DF Gc Bg|fd ce dB BF|
D1/2E1/2F1/2G1/4A1/4 BF DB, FD|EG DF EC CA|BF DF Gc Bg|fd ce dB Bf1/2g1/4a1/4|
bf dB ge cA|fd BF Ac ce|db fd cg ec|df Ac dB Ba|
bf dB ge cA|fd Bd Ac cA|BF Gc Ad Be|df ce dB B:|
